X: 1
T:Galloway House
M:4/4
L:1/8
Q:212
K:G
G|:B2B2B2A|GE4G3|ED2D2E2G2B2A2A2G|A
zD2 D2D2|CB,C4E3CB,2 B,2C2|C2G2 F2F2|B,C
W: G C G C D7
B2 B2B2|AGE4G3ED2 D2E2|F2G6|GA
D2 D2D2|CB,C4E3CB,2 B,2C2|A,2B,6|z2
W: G C G C D7 G
B2 B2B2|AGc4e2|c2B2 d2B2|G2B2 A2A2|GA
z8z8z8G2 F2F2|B,C
W: G C G C D7
B2 B2B2|AGE4G3ED2 D2E2|F2G6:|
D2D2 D2CB,|C4 E3C|B,2B,2 C2A,2|B,6
W: G C G C D7 G
